docs/assets/images/calc-svg/rounding-1.svg

<svg width="129" height="57" viewBox="0 0 129 57" fill="none" xmlns="http://www.w3.org/2000/svg">
<path d="M31 48.4009C31.3375 48.7701 35.805 51.9027 39.8793 54.7267C42.6626 56.6559 46.133 57.0013 49.2002 55.6718L60 50.9906M31 48.4009L34.8469 49.0483M31 48.4009L32.7755 51.6381M60 50.9906L57.0408 50.667M60 50.9906L58.2245 53.2567" stroke="#926A31"/>
<path d="M1 21.0586L80.2157 1L128 13.6967L127.788 18.3912L50.9494 50.9151C49.5882 51.4913 48.1333 51.8138 46.6562 51.8668C44.2368 51.9536 41.8469 51.3145 39.7938 50.0317L1.10619 25.8598L1 21.0586Z" fill="#4F4F4F" fill-opacity="0.2"/>
<path d="M1 21.0586L80.2157 1L128 13.6967M1 21.0586L1.10619 25.8598L39.7938 50.0317C41.8469 51.3145 44.2368 51.9536 46.6561 51.8668V51.8668C48.1333 51.8138 49.5882 51.4913 50.9494 50.9151L127.788 18.3912L128 13.6967M1 21.0586L39.976 44.7542C41.9173 45.9344 44.1455 46.5586 46.4175 46.5586V46.5586C48.0501 46.5586 49.6666 46.2362 51.1743 45.6099L128 13.6967" stroke="#4F4F4F" stroke-opacity="0.6"/>
</svg>

<svg width="129" height="57" fill="none" xmlns="http://www.w3.org/2000/svg"><path d="M31 48.4c.337.37 4.805 3.503 8.88 6.327 2.783 1.929 6.253 2.274 9.32.945L60 50.99M31 48.4l3.847.647M31 48.401l1.776 3.237M60 50.991l-2.96-.324m2.96.324l-1.776 2.266" stroke="#926A31"/><path d="M1 21.059L80.216 1 128 13.697l-.212 4.694-76.839 32.524a12.129 12.129 0 01-11.155-.883L1.106 25.86 1 21.059z" fill="#4F4F4F" fill-opacity=".2"/><path d="M1 21.059L80.216 1 128 13.697M1 21.059l.106 4.8 38.688 24.173a12.13 12.13 0 006.862 1.835v0a12.129 12.129 0 004.293-.952l76.839-32.524.212-4.694M1 21.059l38.976 23.695a12.4 12.4 0 006.441 1.805v0a12.4 12.4 0 004.757-.95L128 13.698" stroke="#4F4F4F" stroke-opacity=".6"/></svg>
